X:1
T:Si pour amans
T:Si pour amans
T:Thomas Crecquillon
T:Source : Quart Livre de Chansons à 4 parties---Paris---N.du Chemin---1549. Editor : André Vierendeels (17/12/14).
C:Thomas Crecquillon
%%score [ 1 2 [ 3 4 ] ]
L:1/8
Q:1/4=85
M:2/2
K:C
V:1 treble nm="Superius" snm="S"
V:2 treble nm="Altus" snm="A"
V:3 treble-8 nm="Tenor 1" snm="T 1"
V:4 treble-8 nm="Tenor 2" snm="T 2"
V:1
 c4 c2 c2 | d4 f4 | f2 f2 e2 d2- | dc c4 BA | B2 d2 d2 d2 | g3 f e2 d2 | c2 d2 ef ge | %7
w: Si pour a-|mans la|Lu- n'est im- por-|* * tu- * *|ne, pour la cler-|te- _ _ qu'el-|le de- mon- * * *|
w: Quand soubz es-|poir pour-|chas- sent leurs for-|* * tu- * *|ne mais la cler-|té _ _ de|la Lu- * * * *|
 fe dc BG c2- | c2 B2 c4 :: z2 c2 c2 B2 | A4 c4 | c2 c2 B2 A2 | B2 d2 d2 d2 | g3 f e2 d2 | %14
w: * * * * * * stre|_ de nuict.,|dont sont con-|trainctz d'at-|ten- dre la mi-|nuict, d'at- ten- dre|la _ _ _|
w: * * * * ne _ leurs|_ nuit, _||||||
 c2 d4 c2- | c2 BA B4 | z2 d2 d2 d2 | g3 f e2 d2 | c2 d4 c2- | c2 B2 c4 | z4 c4 | c2 c2 B2 G2 | %22
w: _ _ _|* mi- * nuict,|que la cler-|té de leurs yeulx|se re- con-|* * se,|et|si n'ont lors de|
w: ||||||||
 A2 B2 c2 A2- | A2 G4 F2 | G4 z2 d2 | e2 d2 d4- | d2 d2 f4- | f2 e2 d2 c2 | B4 A2 c2- | c2 BA G4 | %30
w: leurs da- mes res-|* pon- *|ce, prest|sont de choir|_ en grand|_ des- es- pe-|ran- * *|* * * ce,|
w: ||||||||
 z4 c4 | c2 c2 d4 | f4 f2 f2 | e2 d4 c2- | c2 BA B2 d2 | d2 d2 g3 f | e2 d2 c2 d2 | ef ge fe dc | %38
w: n'es-|toit qu'a- mour|cest ar- rest|leurs pro- non-|* * * ce, la|fin d'es- poir _|_ c'est d'a- voir|iou- * * * * * * *|
w: ||||||||
 BG c4 B2 | c8 |] %40
w: ys- * san- *|ce.|
w: ||
V:2
 G4 A2 A2 |"^b" B6 c2 | c6 B2 | A2 F2 G4 | G4 z2 A2 | B2 B2 B4 | G4 A2 B2 | c2 A2 G4- | G8 :: %9
w: Si pour a-|mans la|Lu- n'est|im- por- tu-|ne, pour|la cler- té|qu'el- le mon-|stre de nuict,|_|
w: Quand soubz es-|poir pour-|chas- sent|leurs for- tu-|ne, mais|la cler- té|de la Lu-|ne leurs nuit,|_|
 z2 G2 A2 G2 | E4 A4 | A2 A2 G2 F2 | G2 D2 DC B,A, | B,4 z2 G2 | G2 G2 C2 C2 | G8 | z2 G2 B2 B2 | %17
w: dont sont con-|trainctz d'at-|ten- dre la mi-|nuict, d'at- ten- * * *|dre d'at-|ten- dre la mi-|nuict,|que la cler-|
w: ||||||||
 B2 c2 c2 c2 | G2 G2 A4 | G8 | z4 G4 | G2 G2 G2 D2 | E2 G4 F2 | D2 E4 DC | B,4 z2 B2 | c2 A2 B4 | %26
w: té de leurs yeulx|se re- con-|se,|et|si n'ont lors de|leurs da- mes|res- pon- * *|ce, prest|sont de choir|
w: |||||||||
 B4 c4- |"^b""^b" c2 B2 B2 A2 | G4 E4 | F4 E4 | z4 G4 |"^b" A2 A2 B4- | B2 c2 c4- | c2 A2 G2 F2 | %34
w: en grand|_ des- es- pe-|ran- *|* ce,|n'est-|toit qu'a- mour|_ ar- rest|_ leurs pro- non-|
w: ||||||||
 G4 G4 | z2 A2 B2 B2 | B4 G4 | A2 B2 c2 A2 | G8 | E8 |] %40
w: * ce,|la fin d'es-|poir c'est|d'a- voir iou- ys-|san-|ce.|
w: ||||||
V:3
 e4 f2 f2 | f4 d2 a2- | a2 a2 g2 f2 | e2 dc d2 e2 | d4 z2 d2 | d2 d2 g3 f | e2 d2 c2 d2 | %7
w: Si pour a-|mans la Lu-|* n'est im- por-|tu- * * * *|ne, pour|la cler- té _|_ qu'el- le mon-|
w: Quand soubz es-|poir pour- chas-|* sent leurs for-|tu- * * * *|ne, mais|la cler- té _|_ de la Lu-|
 ag fe dc e2 | d4 c4 :: z2 e2 f2 d2 | c4 f4 | f2 f2 d2 d2 | d4 z2 d2 | d2 d2 g3 f | e2 d2 e4- | %15
w: * * * * * * stre|de nuict,|dont sont con-|trainctz d'at-|ten- dre la mi-|nuict, d'at-|ten- dre la _|_ mi- nuict,|
w: ne _ _ _ _ _ _|leurs nuit,|||||||
 e4 d2 d2 | d2 d2 B2 d2 | e2 e2 g3 f | e2 d2 e2 f2 | d4 c4 | z4 e4 | e2 e2 d2 B2 | c2 d2 e2 c2- | %23
w: _ que la|cler- té de leurs|yeulx se re- *|* con- * *|* se,|et|si n'ont lors de|leurs da- mes res-|
w: ||||||||
 c2 B2 c4 | d4 z2 g2 | e2 f2 g4- | g2 g2 a4- | a2 g2 f3 e | d2 e3 d cB | A4 c4 | z4 e4 | f2 f2 f4 | %32
w: * pon- ce|_ prest|sont de choir|_ en grand|_ des- es- pe-|ran- * * * *|* ce,|n'es-|toit qu'a- mour|
w: |||||||||
 z2 a2 a2 a2 | g2 f2 e2 dc | d2 e2 d4 | z2 d2 d2 d2 | g3 f e2 d2 | c2 d2 ag fe | dc e2 d4 | c8 |] %40
w: c'est ar- rest|leurs pro- non- * *|* * ce,|la fin d'es-|poir _ _ c'est|d'a- voir iou- * * *|ys- * san- *|ce.|
w: ||||||||
V:4
 c4 F2 F2 | _B6 F2 | FG AB c2 d2 | A2 A2 G4 | G4 z4 | G4 G2 G2 | c2 B2 A2 G2 | F4 G4- | G4 C4 :: %9
w: Si pour a-|mans la|Lu- * * * * n'est|im- por- tu-|ne,|la cler- té|qu'el- le mon- stre|de- *|* nuict,|
w: Quand soubz es-|poir pour-|chas- * * * * sent|leurs for- tu-|ne,|mais le cler-|té de la Lu-|ne leurs|_ nuit,|
 z2 c2 F2 G2 | A4 F4 | F2 F2 G2 D2 | G8 | z2 G2 G2 G2 | c2 B2 A3 G | E3 F G4 | z2 G2 G2 G2 | %17
w: dont sont con-|trainctz d'at-|ten- dre la mi-|nuict,|d'at- ten- dre|la _ _ _|mi- * nuict,|que la cler-|
w: ||||||||
 E2 C2 c4- | c2 B2 A2 F2 | G4 C4 | z4 C4 | C2 C2 G4 | z2 G2 E2 F2 | G2 G2 A4 | G4 z2 G2 | %25
w: té de leurs|_ yeulx se re-|con- se,|et|si n'ont lors|de leurs da-|mes res- pon-|ce, prest|
w: ||||||||
 c2 d2 G4- | G2 G2 F4- |"^b" F2 G2 B2 F2 | G4 A4 | F4 C4 | z4 c4 |"^b" F2 F2 B4- | B2 F2 FG AB | %33
w: sont de choir|_ en grand|_ des- es- pe-|ran- *|* ce,|n'es-|toit qu'a- mour|_ c'est ar- * * *|
w: ||||||||
 c2 d2 G2 A2 | G4 G4 | z4 G4 | G2 G2 c2 B2 | A2 G2 F2 F2 | G8 | C8 |] %40
w: * rest leur pro-|non- ce,|la|fin d'es- poir c'est|d'a- voir iou- ys-|san-|ce.|
w: |||||||

